X: 0
T:Old Zip Coon -- Reel
M:2/4
L: 1/4
K:A
%% |: E,,,/8 z3/8   %% works ok, try tonal_center 04e.12
 |: z/ | A,, E,, |  A,, E,, |  A,, E,,  | E,, B,,,/ z/  |
       | A,, E,, |  A,, E,, |  A,, E,,  | A,, E,,/     :|
 |: z/ | A,, E,, |  A,, E,, |  D,, A,,, | D,, A,,,/ z/  |
      | D,, A,,, |  A,, E,, |  F,, C,,  | A,, E,,/     :|
